assets/Anxious face with sweat/Flat/anxious_face_with_sweat_flat.svg

<svg width="32" height="32" viewBox="0 0 32 32" fill="none" xmlns="http://www.w3.org/2000/svg">
<path d="M29.9978 15.9989C29.9978 23.7303 25.3333 29.9978 15.9989 29.9978C6.66443 29.9978 2 23.7303 2 15.9989C2 15.3202 2.03594 14.6528 2.10783 14L15.9989 7.5L29.8899 14C29.9618 14.6528 29.9978 15.3202 29.9978 15.9989Z" fill="#FFB02E"/>
<path d="M29.89 14C29.143 7.21549 24.514 2 15.999 2C7.48389 2 2.85495 7.21549 2.10791 14H29.89Z" fill="#5092FF"/>
<path d="M13.1107 10.8344C12.3699 11.383 11.1664 12 9.5 12C8.55784 12 7.76363 11.8028 7.11736 11.5322C6.42175 12.3244 6 13.3629 6 14.5C6 16.9853 8.01472 19 10.5 19C12.9853 19 15 16.9853 15 14.5C15 12.9881 14.2543 11.6503 13.1107 10.8344Z" fill="white"/>
<path d="M24.8826 11.5322C24.2364 11.8028 23.4422 12 22.5 12C20.8336 12 19.6301 11.383 18.8893 10.8344C17.7457 11.6503 17 12.9881 17 14.5C17 16.9853 19.0147 19 21.5 19C23.9853 19 26 16.9853 26 14.5C26 13.3629 25.5782 12.3244 24.8826 11.5322Z" fill="white"/>
<path d="M12 17C13.1046 17 14 16.1046 14 15C14 13.8954 13.1046 13 12 13C10.8954 13 10 13.8954 10 15C10 16.1046 10.8954 17 12 17Z" fill="#402A32"/>
<path d="M20 17C21.1046 17 22 16.1046 22 15C22 13.8954 21.1046 13 20 13C18.8954 13 18 13.8954 18 15C18 16.1046 18.8954 17 20 17Z" fill="#402A32"/>
<path d="M10.0174 5.36929C9.82675 6.07318 9.49215 6.72506 8.95171 7.19972C8.4192 7.66742 7.64527 8 6.5 8C6.22386 8 6 8.22386 6 8.5C6 8.77615 6.22386 9 6.5 9C7.85473 9 8.87301 8.59978 9.61161 7.95107C10.3423 7.30933 10.7577 6.46121 10.9826 5.63071C11.0548 5.36417 10.8973 5.08958 10.6307 5.01739C10.3642 4.9452 10.0896 5.10275 10.0174 5.36929Z" fill="#402A32"/>
<path d="M21.9826 5.36929C22.1733 6.07318 22.5079 6.72506 23.0483 7.19972C23.5808 7.66742 24.3547 8 25.5 8C25.7761 8 26 8.22386 26 8.5C26 8.77615 25.7761 9 25.5 9C24.1453 9 23.127 8.59978 22.3884 7.95107C21.6577 7.30933 21.2423 6.46121 21.0174 5.63071C20.9452 5.36417 21.1027 5.08958 21.3693 5.01739C21.6358 4.9452 21.9104 5.10275 21.9826 5.36929Z" fill="#402A32"/>
<path d="M20.9013 25.0064C21.0104 25.5478 20.5516 26 19.9993 26C16.9301 26 14.7168 26 12.0002 26C11.4479 26 10.9896 25.5478 11.0987 25.0064C11.5595 22.721 13.5788 21 16 21C18.4212 21 20.4405 22.721 20.9013 25.0064Z" fill="#BB1D80"/>
<path d="M1 18.5C1 17.1193 2.11929 16 3.5 16C4.88071 16 6 17.1193 6 18.5V22.5C6 23.8807 4.88071 25 3.5 25C2.11929 25 1 23.8807 1 22.5V18.5Z" fill="#3F5FFF"/>
</svg>

<svg xmlns="http://www.w3.org/2000/svg" width="32" height="32" fill="none"><path fill="#FFB02E" d="M29.998 15.999c0 7.731-4.665 13.999-14 13.999C6.665 29.998 2 23.73 2 15.998c0-.678.036-1.345.108-1.998l13.89-6.5L29.89 14c.072.653.108 1.32.108 1.999Z"/><path fill="#5092FF" d="M29.89 14c-.747-6.785-5.376-12-13.891-12S2.855 7.215 2.108 14H29.89Z"/><path fill="#fff" d="M13.11 10.834C12.37 11.383 11.167 12 9.5 12a6.121 6.121 0 0 1-2.383-.468 4.5 4.5 0 1 0 5.993-.698ZM24.883 11.532A6.12 6.12 0 0 1 22.5 12c-1.666 0-2.87-.617-3.61-1.166a4.5 4.5 0 1 0 5.993.698Z"/><path fill="#402A32" d="M12 17a2 2 0 1 0 0-4 2 2 0 0 0 0 4ZM20 17a2 2 0 1 0 0-4 2 2 0 0 0 0 4ZM10.017 5.37c-.19.703-.525 1.355-1.065 1.83-.533.467-1.307.8-2.452.8a.5.5 0 0 0 0 1c1.355 0 2.373-.4 3.112-1.049.73-.642 1.146-1.49 1.37-2.32a.5.5 0 1 0-.965-.262ZM21.983 5.37c.19.703.525 1.355 1.065 1.83.533.467 1.307.8 2.452.8a.5.5 0 0 1 0 1c-1.355 0-2.373-.4-3.112-1.049-.73-.642-1.146-1.49-1.37-2.32a.5.5 0 1 1 .965-.262Z"/><path fill="#BB1D80" d="M20.901 25.006c.11.542-.35.994-.902.994H12c-.552 0-1.01-.452-.901-.994a5.002 5.002 0 0 1 9.802 0Z"/><path fill="#3F5FFF" d="M1 18.5a2.5 2.5 0 0 1 5 0v4a2.5 2.5 0 0 1-5 0v-4Z"/></svg>
